dist/img/vk.svg

<svg width="28" height="29" viewBox="0 0 28 29" fill="none" xmlns="http://www.w3.org/2000/svg">
<path d="M3.17068 7.30255C1.86317 7.30255 0.867545 8.58825 1.22813 9.85236C2.16699 13.1475 3.55876 16.3741 5.63617 18.9111C7.71359 21.4481 10.5232 23.287 14.1162 23.6518C15.3121 23.7732 16.3435 22.7983 16.3435 21.6159V19.2552C16.3435 19.1079 16.4441 19.0032 16.5589 19C16.5801 18.9995 16.5971 18.9988 16.6079 18.9988C17.0205 18.9988 17.8683 19.5158 18.6131 20.3193C19.3578 21.1229 20.0165 22.1176 20.3334 22.6686V22.6697C20.692 23.2921 21.3603 23.6678 22.0709 23.6678H24.9135C26.3292 23.6688 27.2766 22.0696 26.5838 20.8309C25.496 18.8853 23.3259 16.961 22.2407 16.0013C24.229 13.8178 25.5473 11.4382 26.1315 9.86033C26.5723 8.66817 25.6633 7.32648 24.3815 7.32648H22.3523C21.4703 7.32648 20.6479 7.75624 20.3118 8.44415C18.7326 11.6803 17.3249 12.8688 16.3333 13.7249V9.33396C16.3333 8.23851 15.4243 7.33536 14.3326 7.33331L10.7791 7.32762C9.64748 7.32622 8.9458 8.72382 9.6238 9.63019L10.3097 10.5485L10.3108 10.5508C10.4284 10.7062 10.4908 10.8925 10.4908 11.084V11.0851L10.5045 14.7469C9.09111 13.2563 7.55557 10.0988 7.09223 8.69025V8.68911C6.82162 7.86632 6.04313 7.31077 5.18386 7.30825H5.18272L3.17182 7.30255H3.17068ZM3.17068 9.05255L5.1793 9.05825C5.30277 9.05854 5.39357 9.12516 5.42996 9.23598C6.00529 10.9855 7.51692 14.319 9.43354 16.1859C9.93124 16.6707 10.6617 16.769 11.228 16.539C11.7942 16.3091 12.2556 15.713 12.2556 15.0135V15.0123L12.2408 11.084C12.2408 10.5118 12.0535 9.95544 11.7099 9.49917L11.7088 9.49689L11.3955 9.07876L14.3292 9.08331C14.4824 9.08361 14.5833 9.18342 14.5833 9.33396V13.7693C14.5833 15.1896 16.372 16.0057 17.4475 15.0773H17.4487C18.4345 14.2257 20.1791 12.7058 21.8841 9.21206C21.9236 9.13114 21.8892 9.07648 22.3523 9.07648H24.3815C24.4996 9.07648 24.5342 9.13274 24.4897 9.25307C23.9934 10.5937 22.7271 12.9316 20.8496 14.9542C20.2708 15.5778 20.2944 16.608 20.9487 17.1873C21.9743 18.0945 24.2126 20.1758 25.0559 21.6842C25.1331 21.8222 25.0751 21.9179 24.9147 21.9178H22.0709C21.9731 21.9178 21.8926 21.87 21.8499 21.7959C21.4709 21.137 20.7759 20.0781 19.8971 19.1299C19.0183 18.1817 17.9721 17.2488 16.6079 17.2488C16.5692 17.2488 16.5376 17.2494 16.5133 17.25H16.511H16.5099C15.4241 17.2806 14.5935 18.202 14.5935 19.2552V21.6159C14.5935 21.7973 14.4536 21.9273 14.2927 21.9109C11.1873 21.5956 8.84656 20.0702 6.98969 17.8026C5.13281 15.5349 3.80664 12.5164 2.91091 9.3727C2.86083 9.19714 2.96852 9.05255 3.17068 9.05255Z" fill="#FFFF00"/>
</svg>

<svg width="28" height="29" fill="none" xmlns="http://www.w3.org/2000/svg"><path d="M3.17 7.303c-1.307 0-2.302 1.285-1.942 2.55.939 3.295 2.33 6.521 4.408 9.058 2.078 2.537 4.887 4.376 8.48 4.74 1.196.122 2.227-.853 2.227-2.035v-2.36c0-.148.101-.253.216-.256l.049-.001c.412 0 1.26.517 2.005 1.32a14.264 14.264 0 011.72 2.35 2.006 2.006 0 001.738.999h2.842c1.416 0 2.364-1.598 1.67-2.837-1.087-1.946-3.257-3.87-4.342-4.83 1.988-2.183 3.306-4.563 3.89-6.14.441-1.193-.468-2.535-1.75-2.535h-2.029c-.882 0-1.704.43-2.04 1.118-1.58 3.236-2.987 4.425-3.979 5.28v-4.39a2.017 2.017 0 00-2-2l-3.554-.006C9.647 7.326 8.946 8.724 9.624 9.63l.686.918v.003c.118.155.18.341.18.533v.001l.014 3.662c-1.413-1.49-2.948-4.648-3.412-6.057a2.021 2.021 0 00-1.908-1.382h-.001l-2.011-.005H3.17zm0 1.75l2.01.005a.25.25 0 01.25.178c.575 1.75 2.087 5.083 4.004 6.95a1.693 1.693 0 001.794.353 1.677 1.677 0 001.028-1.526l-.015-3.929a2.64 2.64 0 00-.531-1.585l-.001-.002-.313-.418 2.933.004c.153 0 .254.1.254.251v4.435c0 1.42 1.789 2.237 2.865 1.308.986-.851 2.731-2.371 4.436-5.865.04-.08.005-.136.468-.136h2.03c.118 0 .152.057.108.177-.497 1.34-1.763 3.679-3.64 5.701-.58.624-.556 1.654.099 2.233 1.025.907 3.264 2.989 4.107 4.497.077.138.02.234-.141.234H22.07a.249.249 0 01-.221-.122 15.493 15.493 0 00-1.953-2.666c-.879-.948-1.925-1.881-3.29-1.881l-.094.001h-.003c-1.086.03-1.917.952-1.917 2.005v2.36c0 .182-.14.312-.3.296-3.106-.315-5.446-1.84-7.303-4.108-1.857-2.268-3.183-5.287-4.08-8.43-.05-.176.059-.32.26-.32z" fill="#FF0"/></svg>
